symbolic/24x24/actions/mail-read.svg

<svg xmlns="http://www.w3.org/2000/svg" width="24" height="24"><defs><style id="current-color-scheme" type="text/css"></style></defs><path style="fill:currentColor;color:#323a41" d="M3 1v2h10V1zM2 3S0 3 0 5v8c0 2 2 2 2 2h12s2 0 2-2V5c0-2-2-2-2-2v4l-6 3-6-3zm1 2v2h10V5z" transform="translate(4 4)"/></svg>

<svg xmlns="http://www.w3.org/2000/svg" width="24" height="24" version="1.1">
 <defs>
  <style id="current-color-scheme" type="text/css">
   .ColorScheme-Text { color:#323a41; } .ColorScheme-Highlight { color:#4285f4; } .ColorScheme-NeutralText { color:#ff9800; } .ColorScheme-PositiveText { color:#4caf50; } .ColorScheme-NegativeText { color:#f44336; }
  </style>
 </defs>
 <g transform="translate(4,4)">
  <path style="fill:currentColor" class="ColorScheme-Text" d="M 3,1 V 3 H 13 V 1 Z M 2,3 C 2,3 0,3 0,5 V 13 C 0,15 2,15 2,15 H 14 C 14,15 16,15 16,13 V 5 C 16,3 14,3 14,3 V 7 L 8,10 2,7 Z M 3,5 V 7 H 13 V 5 Z"/>
 </g>
</svg>
